X:16355
T:Tell Her I Am
R:jig
H:See also #156
Z:id:hn-jig-290
M:6/8
K:G
edB GAB|~D3 GAB|~D3 c2A|BGE GBd|
edB GAB|~D3 GAB|AGF GBA|GFE D2d:|
|:~B3 dBG|BAB dBG|ABA DBD|AGF E2D|
BAB deg|bge d2B|BAF GBA|GFE D2d:|
|:efg efg|dBG GBd|eaa aga|bge ~e2d|
[1 efg efg|dBG GBd|agf gba|gfe d^cd:|
[2 efg agf|gfe d2B|BAF GBA|GFE D2d||
